X:31
T: BUKO VON HALBERSTADT
N: K0121A
O: Europa, Mitteleuropa, Deutschland, Norddeutschland, Zerbst
R: Kinder -, Wiegen - Lied
M: 2/4
L: 1/16
K: F
 | c4A2d2 | c2cBA2z2
c2c2A2d2 | c2cBA2
C2 | F2F2G2G2 | A4G2
C2 | F2F2G2G2 | A4G2
G2 | F2F2G2G2 | A2A2G2
B2 | A2FFG2CC | F2F2F2z2

